X: 1070
T:Schaefer's Schottiche
M:3/4
L:1/8
S:Harry Schaefer's manuscripts now held in the National Library of Australia
A:Australia
Z:Transcribed into ABC by John Furlonger
K:D
F>G|AF A>d f2 d2|B>G B>c g2 e2|c>A c>e a>g f>e|93dfe (3dcB A2 F>G|
AF A>d f2 d2|B>G B>c g2 f>e|d>e d>B A>B c>e|d2 f2 d2 f>g|
a>b a>f d2 A2|e>f e>d c2 A2|a>^g b>a f>d c>d|(3efe (3dcB A2 f>g|
a>b a>f d2 A2|e>f e>d c2 a>g|f>a f>d B>g e>c|d2 e2 d2||
